logos/aws-cdk.svg

<?xml version="1.0" encoding="UTF-8"?>
<svg width="80px" height="80px" viewBox="0 0 80 80" version="1.1" xmlns="http://www.w3.org/2000/svg" xmlns:xlink="http://www.w3.org/1999/xlink">
    <!-- Generator: Sketch 64 (93537) - https://sketch.com -->
    <title>Icon-Architecture/64/Arch_AWS-Cloud-Development-Kit_64</title>
    <desc>Created with Sketch.</desc>
    <defs>
        <linearGradient x1="0%" y1="100%" x2="100%" y2="0%" id="linearGradient-1">
            <stop stop-color="#2E27AD" offset="0%"></stop>
            <stop stop-color="#527FFF" offset="100%"></stop>
        </linearGradient>
    </defs>
    <g id="Icon-Architecture/64/Arch_AWS-Cloud-Development-Kit_64" stroke="none" stroke-width="1" fill="none" fill-rule="evenodd">
        <g id="Icon-Architecture-BG/64/Developer-Tools" fill="url(#linearGradient-1)">
            <rect id="Rectangle" x="0" y="0" width="80" height="80"></rect>
        </g>
        <path d="M68,39.3055249 C68,46.2347078 63.2662495,48.7760413 60.4452559,49.6748056 L59.8457203,47.7683056 C62.6597657,46.8725405 66.0147828,44.6771162 66.0147828,39.3055249 C66.0147828,32.5143058 60.4561746,30.8187505 58.0669656,30.404859 C57.5339348,30.3128831 57.1736179,29.8080155 57.2530266,29.2701566 L57.2530266,29.2701566 C57.0167857,26.175968 55.5775032,23.9505516 53.3907865,23.3067204 C51.5743127,22.7728604 49.6228442,23.4806748 48.4257582,25.1142464 C48.2083769,25.4111686 47.8411117,25.562129 47.4807948,25.5091429 C47.1175,25.455157 46.8137618,25.2022234 46.691671,24.8533149 C45.8668132,22.503931 44.6717124,20.5274493 43.1401173,18.9788554 C41.2601166,17.0793535 36.1025223,12.9944248 28.8128047,16.1016099 C24.6031515,17.8971391 21.3057057,23.0697826 21.3057057,27.8765221 C21.3057057,28.4113818 21.3374692,28.9502405 21.4009962,29.4791018 C21.4595601,29.9769712 21.1429179,30.4418493 20.6605101,30.5658168 C18.1670773,31.2066488 13.9852172,33.1821307 13.9852172,39.2215469 C13.9852172,39.4174955 13.9901803,39.6094452 14.0001064,39.7983956 C14.1867168,43.686376 17.0275626,47.0265001 20.9106475,47.923265 L20.4659588,49.871754 C15.7212897,48.7750416 12.2461669,44.674117 12.0168743,39.8983694 C12.004963,39.6804266 12,39.4524864 12,39.2215469 C12,32.3143583 16.6374674,29.7670263 19.352252,28.8692617 C19.3314072,28.5383485 19.3204885,28.2064355 19.3204885,27.8765221 C19.3204885,22.2340018 23.0685786,16.3805368 28.0395625,14.2600929 C33.8641899,11.7747446 40.0362302,13.0114203 44.5456511,17.5672256 C45.9482071,18.9848538 47.0976479,20.7044029 47.9741213,22.6948809 C49.6426964,21.2822513 51.8492653,20.7703856 53.9476399,21.3882236 C56.8262049,22.2350015 58.7528582,24.906301 59.1826577,28.5943338 C61.9986883,29.25716 68,31.5805507 68,39.3055249 L68,39.3055249 Z M56.8986653,61.3137534 L49.9633089,65.1997343 L49.9633089,56.5540016 L56.8986653,52.6120354 L56.8986653,61.3137534 Z M39.0078877,61.28876 L32.0874205,65.2767142 L32.0874205,56.5200105 L39.0078877,52.5900411 L39.0078877,61.28876 Z M31.091834,54.7904641 L24.1693816,50.9054829 L31.1037453,47.0205017 L37.9716043,50.8824889 L31.091834,54.7904641 Z M23.1211869,52.6060369 L30.1022032,56.5240095 L30.1022032,65.2817128 L23.1211869,61.2867605 L23.1211869,52.6060369 Z M40.029282,32.0534267 L46.9110375,35.8984184 L40.0004963,39.7634048 L33.1445486,35.9184131 L40.029282,32.0534267 Z M42.0323661,50.8844884 L48.9548186,47.0045059 L55.8653597,50.9034834 L48.9707003,54.8224557 L42.0323661,50.8844884 Z M40.9931049,52.5890414 L47.9780917,56.5540016 L47.9780917,65.1997343 L40.9931049,61.2807621 L40.9931049,52.5890414 Z M47.9641952,45.2719602 L40.9931049,49.1779359 L40.9931049,41.4949507 L47.9641952,37.5969729 L47.9641952,45.2719602 Z M32.0973465,37.6189672 L39.0078877,41.493951 L39.0078877,49.1749367 L32.0973465,45.2889558 L32.0973465,37.6189672 Z M58.3915486,50.0367107 C58.3865856,50.0337115 58.38063,50.0327118 58.3756669,50.0297126 L58.3766595,50.0277131 L49.9494124,45.2739597 L49.9494124,35.8984184 C49.9494124,35.5435114 49.7637946,35.2165972 49.4600564,35.0366444 C49.4521155,35.0326454 49.4451672,35.0306459 49.4372264,35.026647 L49.4392116,35.0236478 L40.5106971,30.0359558 C40.2089441,29.8689995 39.8436641,29.8689995 39.5458816,30.0369555 L30.6223301,35.045642 L30.6233228,35.0476415 C30.6163745,35.0516404 30.6084336,35.0526402 30.6014854,35.0566391 C30.2987397,35.2365919 30.1121293,35.5645059 30.1121293,35.9184131 L30.1121293,45.2869563 L21.6461705,50.0307123 L21.6481557,50.0327118 C21.6402148,50.0367107 21.632274,50.0387102 21.6253257,50.0427092 C21.3225801,50.2216622 21.1359697,50.550576 21.1359697,50.9044832 L21.1359697,61.8686079 C21.1359697,62.2285135 21.3275431,62.5604265 21.6382296,62.7373801 L30.5965223,67.8650354 L30.6044632,67.8700341 L30.6044632,67.8690343 C30.7573249,67.9560115 30.9260684,68 31.0948118,68 C31.2645479,68 31.4352766,67.9560115 31.5881383,67.8680346 L40.0074446,63.0163069 L48.4882925,67.7740593 L48.4892851,67.77106 C48.639169,67.855038 48.8039421,67.9000262 48.9707003,67.9000262 C49.136466,67.9000262 49.3032242,67.8580372 49.4531081,67.7740593 L58.3746743,62.7753701 C58.6893312,62.5984165 58.8838825,62.2645041 58.8838825,61.9015993 L58.8838825,50.9004842 C58.8838825,50.5445775 58.6972721,50.2166635 58.3915486,50.0367107 L58.3915486,50.0367107 Z" id="AWS-Cloud-Development-Kit_Icon_64_Squid" fill="#FFFFFF"></path>
    </g>
</svg>

<svg width="80" height="80" xmlns="http://www.w3.org/2000/svg">
	<defs>
		<linearGradient x1="0%" y1="100%" x2="100%" y2="0%" id="a">
			<stop stop-color="#2E27AD" offset="0%"/>
			<stop stop-color="#527FFF" offset="100%"/>
		</linearGradient>
	</defs>
	<g fill="none" fill-rule="evenodd">
		<path d="M0 0h80v80H0z" fill="url(#a)"/>
		<path d="M68 39.306c0 6.929-4.734 9.47-7.555 10.369l-.6-1.907c2.815-.895 6.17-3.09 6.17-8.462 0-6.792-5.559-8.487-7.948-8.901a1 1 0 0 1-.814-1.135c-.236-3.094-1.675-5.32-3.862-5.963-1.817-.534-3.768.174-4.965 1.807a.996.996 0 0 1-.945.395.993.993 0 0 1-.79-.656c-.824-2.35-2.02-4.326-3.55-5.874-1.88-1.9-7.038-5.985-14.328-2.877-4.21 1.795-7.507 6.968-7.507 11.775 0 .534.031 1.073.095 1.602a1 1 0 0 1-.74 1.087c-2.494.64-6.676 2.616-6.676 8.656 0 .195.005.387.015.576.187 3.888 3.028 7.229 6.91 8.125l-.444 1.949c-4.745-1.097-8.22-5.198-8.45-9.974a12.491 12.491 0 0 1-.016-.676c0-6.908 4.637-9.455 7.352-10.353-.02-.33-.032-.663-.032-.992 0-5.643 3.749-11.496 8.72-13.617 5.824-2.485 11.996-1.249 16.506 3.307 1.402 1.418 2.552 3.137 3.428 5.128 1.669-1.413 3.875-1.925 5.974-1.307 2.878.847 4.805 3.518 5.235 7.206C61.999 29.257 68 31.581 68 39.306ZM56.899 61.314 49.963 65.2v-8.646l6.936-3.942v8.702Zm-17.891-.025-6.92 3.988V56.52l6.92-3.93v8.699Zm-7.916-6.499-6.923-3.885 6.935-3.884 6.868 3.861-6.88 3.908Zm-7.97-2.184 6.98 3.918v8.758l-6.98-3.995v-8.681Zm16.907-20.553 6.882 3.845-6.91 3.865-6.856-3.845 6.884-3.865Zm2.003 18.831 6.923-3.88 6.91 3.9-6.894 3.918-6.939-3.938Zm-1.039 1.705 6.985 3.965V65.2l-6.985-3.92V52.59Zm6.971-7.317-6.97 3.906v-7.683l6.97-3.898v7.675Zm-15.867-7.653 6.91 3.875v7.68l-6.91-3.885v-7.67Zm26.295 12.418-.016-.007v-.002l-8.427-4.754v-9.376a1 1 0 0 0-.489-.861l-.023-.01.002-.003-8.928-4.988a.99.99 0 0 0-.965.001l-8.924 5.009.001.002c-.007.004-.015.005-.022.009-.302.18-.489.508-.489.861v9.369l-8.466 4.744.002.002-.023.01c-.302.179-.489.508-.489.861V61.87c0 .36.192.691.502.868l8.959 5.128.007.005v-.001a.99.99 0 0 0 .984-.001l8.42-4.852 8.48 4.758.001-.003c.15.084.315.129.482.129a.988.988 0 0 0 .482-.126l8.922-4.999c.314-.177.509-.51.509-.873V50.9a1 1 0 0 0-.492-.863Z" fill="#FFF"/>
	</g>
</svg>
